logos/mint-lang.svg

<?xml version="1.0" encoding="UTF-8"?>
<svg width="512px" height="111px" viewBox="0 0 512 111" version="1.1" xmlns="http://www.w3.org/2000/svg" xmlns:xlink="http://www.w3.org/1999/xlink" preserveAspectRatio="xMidYMid">
    <title>Mint</title>
    <defs>
        <linearGradient x1="-63.2980307%" y1="87.2602815%" x2="55.7311409%" y2="-28.5693766%" id="Mint-linearGradient-1">
            <stop stop-color="#3AC155" offset="0%"></stop>
            <stop stop-color="#0CB3FF" offset="100%"></stop>
        </linearGradient>
        <linearGradient x1="-1.28121113e-05%" y1="50.0000955%" x2="100%" y2="50.0000955%" id="Mint-linearGradient-2">
            <stop stop-color="#3AC155" offset="0%"></stop>
            <stop stop-color="#0CB3FF" offset="100%"></stop>
        </linearGradient>
    </defs>
    <g>
				<path d="M164.138112,27.6623502 C148.014144,31.5204902 134.755917,31.7120291 123.282271,30.0635936 C115.942395,39.0332186 111.452244,48.0455561 107.71223,56.9083998 C123.322314,52.5357076 138.674789,46.7421574 151.351058,39.1673625 C137.663036,49.2635297 121.836053,56.3357854 105.886938,61.3758604 C100.05468,76.0315869 95.5344963,90.4497252 82.6813707,101.609033 L81.1784246,102.912432 C99.8971777,96.3921018 132.550217,78.6090193 164.138112,27.6623502 L164.138112,27.6623502 Z" fill="url(#Mint-linearGradient-1)"></path>
				<path d="M20.3898611,22.4020389 C-12.9485799,46.7154621 2.23304434,85.9609084 12.6829244,76.788399 C29.7625854,62.0125436 55.4154459,25.9952279 104.549503,13.0766988 C59.94831,25.2103857 28.4865494,67.7940809 20.2263523,78.5022381 C11.9661553,89.2097279 21.5330879,106.789926 41.1134322,109.52753 C60.6937766,112.265802 71.6849041,104.971975 79.6194184,98.0839172 L79.6220879,98.085252 C105.301644,75.789327 95.2588672,37.7298199 144.822052,4.85187305 C62.8427492,-11.3621924 26.5885127,17.8818551 20.3898611,22.4027063 L20.3898611,22.4020389 Z" fill="url(#Mint-linearGradient-2)"></path>
				<path d="M211.791915,108.669276 C209.57042,108.669276 207.638569,107.848395 205.996362,106.206633 C204.354601,104.563982 203.53372,102.631909 203.53372,100.410414 L203.53372,11.1566385 C203.53372,8.93514355 204.354601,7.00329277 205.996362,5.36108613 C207.638124,3.71932441 209.569975,2.89777617 211.791915,2.89777617 L215.414469,2.89777617 C217.925608,2.89777617 220.243651,3.57450234 222.368598,4.92661992 C224.493989,6.27918242 226.039648,8.06598867 227.005573,10.2870387 L252.362116,65.0564766 C252.362116,65.1530246 252.41039,65.2012986 252.506938,65.2012986 C252.603486,65.2012986 252.65176,65.1530246 252.65176,65.0564766 L278.007635,10.2870387 C278.973561,8.06554375 280.519219,6.2787375 282.644611,4.92661992 C284.769558,3.57405742 287.087601,2.89777617 289.59874,2.89777617 L293.80125,2.89777617 C296.022745,2.89777617 297.954595,3.71865703 299.596802,5.36041875 C301.238564,7.00307031 302.059445,8.93514355 302.059445,11.1566385 L302.059445,100.410414 C302.059445,102.631909 301.238564,104.563759 299.596802,106.205966 C297.95504,107.848173 296.023189,108.669276 293.80125,108.669276 L290.613162,108.669276 C288.391667,108.669276 286.459816,107.848395 284.81761,106.206633 C283.175848,104.563982 282.354967,102.631909 282.354967,100.410414 L282.354967,37.3827809 C282.354967,37.2857879 282.306471,37.2372914 282.209478,37.2372914 C282.112929,37.2372914 282.064655,37.2855654 282.064655,37.3821135 L264.677998,74.6194049 C263.61508,76.8413447 261.972873,78.6766475 259.751379,80.1253131 C257.626432,81.4778756 255.35644,82.1541568 252.941404,82.1541568 L252.071804,82.1541568 C249.657213,82.1541568 247.339171,81.4778756 245.117676,80.1253131 C242.992284,78.6766475 241.398351,76.8413447 240.335878,74.6194049 L222.948553,37.3821135 C222.948553,37.2855654 222.900279,37.2372914 222.803731,37.2372914 C222.707183,37.2372914 222.658909,37.2855654 222.658909,37.3821135 L222.658909,100.410414 C222.658909,102.631909 221.838028,104.563759 220.196267,106.205966 C218.553615,107.848173 216.621542,108.669276 214.400047,108.669276 L211.791915,108.669276 Z M336.093966,108.669276 C333.872026,108.669276 331.939953,107.848395 330.297746,106.206633 C328.655984,104.563982 327.835104,102.631909 327.835104,100.410414 L327.835104,41.5839557 C327.835104,39.3624607 328.655984,37.43061 330.297746,35.7884033 C331.939953,34.1466416 333.872026,33.3257607 336.093966,33.3257607 L339.860674,33.3257607 C342.082614,33.3257607 344.014687,34.1466416 345.656894,35.7884033 C347.298656,37.430165 348.119537,39.3620158 348.119537,41.5839557 L348.119537,100.410414 C348.119537,102.631909 347.298656,104.563759 345.656894,106.205966 C344.014687,107.848173 342.082614,108.669276 339.860674,108.669276 L336.093966,108.669276 Z M336.093966,17.3873244 C333.872026,17.3873244 331.939953,16.5662211 330.297746,14.9240145 C328.655984,13.2822527 327.835104,11.350402 327.835104,9.12846211 L327.835104,8.2588623 C327.835104,6.03736738 328.655984,4.1055166 330.297746,2.46330996 C331.939953,0.82110332 333.872026,0 336.093966,0 L339.860674,0 C342.082614,0 344.014687,0.820880859 345.656894,2.46264258 C347.298656,4.10529414 348.119537,6.03736738 348.119537,8.2588623 L348.119537,9.12846211 C348.119537,11.349957 347.298656,13.2818078 345.656894,14.9240145 C344.014687,16.5657762 342.082614,17.386657 339.860674,17.386657 L336.093966,17.3873244 Z M380.704503,108.669276 C378.483008,108.669276 376.551157,107.848395 374.90895,106.206633 C373.267188,104.563982 372.446308,102.631909 372.446308,100.410414 L372.446308,41.5839557 C372.446308,39.3624607 373.267188,37.43061 374.90895,35.7884033 C376.551157,34.1466416 378.483008,33.3257607 380.704503,33.3257607 L382.588524,33.3257607 C384.906567,33.3257607 386.838418,34.1466416 388.384077,35.7884033 C390.025838,37.3340619 390.895216,39.2659127 390.992209,41.5839557 L390.992209,42.5983775 C390.992209,42.6949256 391.040483,42.7431996 391.137031,42.7431996 C391.233579,42.7431996 391.330127,42.6949256 391.426675,42.5983775 C397.995056,35.4502627 405.674408,31.8762053 414.464729,31.8762053 C423.254606,31.8762053 429.629892,34.3877893 433.590586,39.4109572 C437.647384,44.3371322 439.675783,52.5959945 439.675783,64.1875441 L439.675783,100.410414 C439.675783,102.631909 438.854902,104.563759 437.21314,106.205966 C435.570933,107.848173 433.63886,108.669276 431.41692,108.669276 L428.954278,108.669276 C426.732338,108.669276 424.800265,107.848395 423.158058,106.206633 C421.612844,104.563982 420.840237,102.631909 420.840237,100.410414 L420.840237,65.6364322 C420.840237,58.3917693 419.87409,53.4653719 417.941794,50.8572398 C416.106491,48.1525598 412.774026,46.8002197 407.944399,46.8002197 C403.98415,46.8002197 400.313544,48.4907004 396.932583,51.8716617 C393.551622,55.2521781 391.861141,58.8745096 391.861141,62.7386561 L391.861141,100.410414 C391.861141,102.631909 391.04026,104.563759 389.398498,106.205966 C387.756292,107.848173 385.824219,108.669276 383.602279,108.669276 L380.704503,108.669276 Z M459.544436,50.2779516 C457.612586,50.2779516 455.970379,49.6016703 454.617816,48.2491078 C453.265254,46.7999973 452.588973,45.1095166 452.588973,43.1776658 C452.588973,41.245815 453.265254,39.6038309 454.617816,38.2517133 C455.970379,36.8991508 457.612586,36.2228695 459.544436,36.2228695 L466.498565,36.2228695 C467.368387,36.2228695 467.803299,35.7881809 467.803299,34.9188035 L467.803299,16.9528582 C467.803299,14.7309184 468.575905,12.7988451 470.121119,11.1566385 C471.763326,9.51487676 473.695399,8.6939959 475.917339,8.6939959 L478.815115,8.6939959 C481.03661,8.6939959 482.968461,9.51487676 484.610667,11.1566385 C486.252429,12.7984002 487.07331,14.730251 487.07331,16.9521908 L487.07331,34.9188035 C487.07331,35.7881809 487.508221,36.2228695 488.378043,36.2228695 L504.895768,36.2228695 C506.827619,36.2228695 508.469603,36.8991508 509.821721,38.2517133 C511.270831,39.6042758 511.995386,41.24626 511.995386,43.1776658 C511.995386,45.1095166 511.270831,46.8002197 509.821721,48.2497752 C508.469158,49.6018928 506.827174,50.2779516 504.895768,50.2779516 L488.378043,50.2779516 C487.508666,50.2779516 487.073977,50.6641437 487.073977,51.4365281 L487.073977,80.7052687 C487.073977,86.9835613 487.750259,91.040359 489.102821,92.8756617 C490.454939,94.7109645 493.255944,95.6286158 497.505838,95.6286158 C499.823881,95.6286158 501.562636,95.5320678 502.722102,95.3389717 C504.653953,95.1458756 506.344434,95.5805643 507.793544,96.6430377 C509.24221,97.7055111 509.966543,99.1543992 509.966543,100.989702 C509.966543,103.115094 509.24221,105.047167 507.793544,106.785922 C506.440982,108.427683 504.750501,109.345335 502.722102,109.538876 C498.472208,109.925068 495.284566,110.118164 493.159174,110.118164 C483.789564,110.118164 477.221182,108.138039 473.454029,104.17779 C469.686875,100.120547 467.803299,92.9241582 467.803299,82.588623 L467.803299,51.4365281 C467.803299,50.6641437 467.36861,50.2779516 466.499233,50.2779516 L459.544436,50.2779516 Z" fill="#444444"></path>
		</g>
</svg>

<?xml version="1.0" encoding="UTF-8"?>
<svg width="512" height="111" version="1.1" xmlns="http://www.w3.org/2000/svg" preserveAspectRatio="xMidYMid">
	<defs>
		<linearGradient x1="-63.298%" y1="87.26%" x2="55.731%" y2="-28.569%" id="a">
			<stop stop-color="#3AC155" offset="0%"/>
			<stop stop-color="#0CB3FF" offset="100%"/>
		</linearGradient>
		<linearGradient x1="0%" y1="50%" x2="100%" y2="50%" id="b">
			<stop stop-color="#3AC155" offset="0%"/>
			<stop stop-color="#0CB3FF" offset="100%"/>
		</linearGradient>
	</defs>
	<path d="M164.138 27.662c-16.124 3.858-29.382 4.05-40.856 2.402-7.34 8.97-11.83 17.982-15.57 26.844 15.61-4.372 30.963-10.166 43.64-17.74-13.689 10.096-29.516 17.168-45.465 22.208-5.832 14.656-10.353 29.074-23.206 40.233l-1.503 1.303c18.72-6.52 51.372-24.303 82.96-75.25Z" fill="url(#a)"/>
	<path d="M20.39 22.402C-12.95 46.715 2.233 85.961 12.683 76.788c17.08-14.775 42.732-50.793 91.867-63.711C59.948 25.21 28.487 67.794 20.226 78.502c-8.26 10.708 1.307 28.288 20.887 31.026 19.58 2.738 30.572-4.556 38.506-11.444l.003.001c25.68-22.296 15.637-60.355 65.2-93.233C62.842-11.362 26.59 17.882 20.39 22.402Z" fill="url(#b)"/>
	<path d="M211.792 108.67c-2.222 0-4.153-.822-5.796-2.463-1.641-1.643-2.462-3.575-2.462-5.797V11.157c0-2.222.82-4.154 2.462-5.796 1.642-1.642 3.574-2.463 5.796-2.463h3.622c2.512 0 4.83.677 6.955 2.029 2.125 1.352 3.67 3.139 4.637 5.36l25.356 54.77c0 .096.048.144.145.144.096 0 .145-.048.145-.145l25.356-54.769c.966-2.221 2.511-4.008 4.637-5.36a12.7 12.7 0 0 1 6.954-2.03h4.202c2.222 0 4.154.822 5.796 2.463 1.642 1.643 2.462 3.575 2.462 5.797v89.253c0 2.222-.82 4.154-2.462 5.796-1.642 1.642-3.574 2.463-5.796 2.463h-3.188c-2.221 0-4.153-.82-5.795-2.462-1.642-1.643-2.463-3.575-2.463-5.797V37.383c0-.097-.049-.146-.146-.146-.096 0-.144.049-.144.145L264.678 74.62c-1.063 2.222-2.705 4.058-4.927 5.506-2.125 1.353-4.395 2.03-6.81 2.03h-.87c-2.414 0-4.732-.677-6.953-2.03-2.126-1.448-3.72-3.284-4.782-5.506l-17.387-37.237c0-.096-.049-.145-.145-.145-.097 0-.145.049-.145.145v63.028c0 2.222-.821 4.154-2.463 5.796-1.642 1.642-3.574 2.463-5.796 2.463h-2.608Zm124.302 0c-2.222 0-4.154-.822-5.796-2.463-1.642-1.643-2.463-3.575-2.463-5.797V41.584c0-2.222.821-4.153 2.463-5.796 1.642-1.641 3.574-2.462 5.796-2.462h3.767c2.222 0 4.154.82 5.796 2.462 1.642 1.642 2.463 3.574 2.463 5.796v58.826c0 2.222-.821 4.154-2.463 5.796-1.642 1.642-3.574 2.463-5.796 2.463h-3.767Zm0-91.283c-2.222 0-4.154-.82-5.796-2.463-1.642-1.642-2.463-3.574-2.463-5.796v-.87c0-2.22.821-4.152 2.463-5.795C331.94.821 333.872 0 336.094 0h3.767c2.222 0 4.154.82 5.796 2.463 1.642 1.642 2.463 3.574 2.463 5.796v.87c0 2.221-.821 4.153-2.463 5.795-1.642 1.642-3.574 2.463-5.796 2.463h-3.767Zm44.61 91.282c-2.221 0-4.153-.82-5.795-2.462-1.642-1.643-2.463-3.575-2.463-5.797V41.584c0-2.222.821-4.153 2.463-5.796 1.642-1.641 3.574-2.462 5.796-2.462h1.884c2.318 0 4.25.82 5.795 2.462 1.642 1.546 2.511 3.478 2.608 5.796v1.014c0 .097.048.145.145.145.097 0 .193-.048.29-.145 6.568-7.148 14.247-10.722 23.038-10.722 8.79 0 15.165 2.512 19.126 7.535 4.056 4.926 6.085 13.185 6.085 24.777v36.222c0 2.222-.821 4.154-2.463 5.796-1.642 1.642-3.574 2.463-5.796 2.463h-2.463c-2.222 0-4.154-.82-5.796-2.462-1.545-1.643-2.318-3.575-2.318-5.797V65.636c0-7.244-.966-12.17-2.898-14.779-1.836-2.704-5.168-4.057-9.998-4.057-3.96 0-7.63 1.69-11.011 5.072-3.381 3.38-5.072 7.003-5.072 10.867v37.671c0 2.222-.82 4.154-2.463 5.796-1.642 1.642-3.574 2.463-5.796 2.463h-2.897Zm78.84-58.391c-1.931 0-3.574-.676-4.926-2.029-1.353-1.449-2.029-3.14-2.029-5.071 0-1.932.676-3.574 2.029-4.926 1.352-1.353 2.995-2.03 4.926-2.03h6.955c.87 0 1.304-.434 1.304-1.303V16.953c0-2.222.773-4.154 2.318-5.796 1.642-1.642 3.574-2.463 5.796-2.463h2.898c2.222 0 4.153.82 5.796 2.463 1.641 1.641 2.462 3.573 2.462 5.795V34.92c0 .87.435 1.304 1.305 1.304h16.518c1.932 0 3.574.676 4.926 2.029 1.449 1.352 2.173 2.994 2.173 4.926s-.724 3.622-2.173 5.072c-1.353 1.352-2.995 2.028-4.926 2.028h-16.518c-.87 0-1.304.386-1.304 1.159v29.268c0 6.279.676 10.335 2.029 12.17 1.352 1.836 4.153 2.754 8.403 2.754 2.318 0 4.057-.097 5.216-.29 1.932-.193 3.622.242 5.072 1.304 1.448 1.063 2.173 2.511 2.173 4.347 0 2.125-.725 4.057-2.173 5.796-1.353 1.642-3.043 2.56-5.072 2.753-4.25.386-7.437.58-9.563.58-9.37 0-15.938-1.981-19.705-5.941-3.767-4.057-5.65-11.254-5.65-21.59V51.438c0-.773-.435-1.159-1.305-1.159h-6.955Z" fill="#444"/>
</svg>
